X: 7616
T: Coilsfield House
R: barndance
M: 4/4
K: Gmajor
|:G>A|B3 D G2 B/A/G/F/|G3 D G2 G/A/B|c3 B/A/ B2 BA/G/|F2 A2 D3 d|
cBAG GFE<D|G4 E2 cB/A/|B2 G2 A3 G/F/|G3 G G2:|
G/A/B/c/|d3 e d2 c>B|c3 e A2 A/B/c|d2 dB G2 G/A/B/G/|A{G/A/}GFE D3 B/c/|
d2 d>e d2 B2|c2 e2 e2 ag|fgag fde<f|g4- g2 ga|
b2 g2 d3 c/B/|c2 e2 A3 B/c/|d3 B G2 D/E/F/G/|A>GF<E D3 c|
B2 G2 D3 B|c2 E2 A2 dc|B2 G2 A2 F2|G4- G2||

